data/styles/clear/style-clear/symbols/college-m.svg

<svg height="24" viewBox="0 0 24 24" width="24"><g fill="none" fill-rule="evenodd"><circle cx="12" cy="12" fill="#fff" opacity=".6" r="12"/><circle cx="12" cy="12" fill="#717065" r="11"/><path d="m12 7-6 3.15 6 3.15 4.1538462-2.10933v3.20625c0 1.60308 1.3846153 1.37808 1.3846153 1.37808v-.675s-.7211538 0-.7211538-.70308v-3.57192l1.1826923-.675zm-3.23076923 5.85v1.29375c0 .32292.47314154.73683.92307692.95625l2.30769231.9 2.3076923-.9c.4499354-.21942.9230769-.63333.9230769-.95625v-1.29375l-3.2307692 1.35z" fill="#fff"/></g></svg>

<svg width="24" height="24" viewBox="0 0 24 24">
  <g fill="none" fill-rule="evenodd">
    <circle cx="12" cy="12" r="12" fill="#FFF" opacity=".6"/>
    <circle cx="12" cy="12" r="11" fill="#717065"/>
    <path fill="#FFF" d="M12,7 L6,10.15 L12,13.3 L16.1538462,11.19067 L16.1538462,14.39692 C16.1538462,16 17.5384615,15.775 17.5384615,15.775 L17.5384615,15.1 C17.5384615,15.1 16.8173077,15.1 16.8173077,14.39692 L16.8173077,10.825 L18,10.15 L12,7 Z M8.76923077,12.85 L8.76923077,14.14375 C8.76923077,14.46667 9.24237231,14.88058 9.69230769,15.1 L12,16 L14.3076923,15.1 C14.7576277,14.88058 15.2307692,14.46667 15.2307692,14.14375 L15.2307692,12.85 L12,14.2 L8.76923077,12.85 Z"/>
  </g>
</svg>
